icons/modern/orange-heart.svg

<svg width="32" height="32" viewBox="0 0 32 32" fill="none" xmlns="http://www.w3.org/2000/svg">
<path d="M15.1041 29.2015C15.6391 29.5 16.2827 29.4835 16.8146 29.1795C20.3976 27.1318 26.624 22.4179 29.0692 16.2948C32.6583 8.3224 24.2311 1.95834 18.4068 6.5356C17.7992 7.01307 17.0353 7.55954 16.5096 8.07719C16.2719 8.31124 15.8531 8.33511 15.6063 8.11061C14.9152 7.48177 13.835 6.67511 13.1413 6.20577C8.17592 2.84639 -0.858693 7.27463 2.99515 16.7255C4.40691 20.9677 11.1344 26.9862 15.1041 29.2015Z" fill="url(#paint0_radial_7305_6103)"/>
<path d="M15.1041 29.2015C15.6391 29.5 16.2827 29.4835 16.8146 29.1795C20.3976 27.1318 26.624 22.4179 29.0692 16.2948C32.6583 8.3224 24.2311 1.95834 18.4068 6.5356C17.7992 7.01307 17.0353 7.55954 16.5096 8.07719C16.2719 8.31124 15.8531 8.33511 15.6063 8.11061C14.9152 7.48177 13.835 6.67511 13.1413 6.20577C8.17592 2.84639 -0.858693 7.27463 2.99515 16.7255C4.40691 20.9677 11.1344 26.9862 15.1041 29.2015Z" fill="url(#paint1_radial_7305_6103)"/>
<path d="M15.1041 29.2015C15.6391 29.5 16.2827 29.4835 16.8146 29.1795C20.3976 27.1318 26.624 22.4179 29.0692 16.2948C32.6583 8.3224 24.2311 1.95834 18.4068 6.5356C17.7992 7.01307 17.0353 7.55954 16.5096 8.07719C16.2719 8.31124 15.8531 8.33511 15.6063 8.11061C14.9152 7.48177 13.835 6.67511 13.1413 6.20577C8.17592 2.84639 -0.858693 7.27463 2.99515 16.7255C4.40691 20.9677 11.1344 26.9862 15.1041 29.2015Z" fill="url(#paint2_linear_7305_6103)"/>
<path d="M15.1041 29.2015C15.6391 29.5 16.2827 29.4835 16.8146 29.1795C20.3976 27.1318 26.624 22.4179 29.0692 16.2948C32.6583 8.3224 24.2311 1.95834 18.4068 6.5356C17.7992 7.01307 17.0353 7.55954 16.5096 8.07719C16.2719 8.31124 15.8531 8.33511 15.6063 8.11061C14.9152 7.48177 13.835 6.67511 13.1413 6.20577C8.17592 2.84639 -0.858693 7.27463 2.99515 16.7255C4.40691 20.9677 11.1344 26.9862 15.1041 29.2015Z" fill="url(#paint3_radial_7305_6103)"/>
<path d="M15.1041 29.2015C15.6391 29.5 16.2827 29.4835 16.8146 29.1795C20.3976 27.1318 26.624 22.4179 29.0692 16.2948C32.6583 8.3224 24.2311 1.95834 18.4068 6.5356C17.7992 7.01307 17.0353 7.55954 16.5096 8.07719C16.2719 8.31124 15.8531 8.33511 15.6063 8.11061C14.9152 7.48177 13.835 6.67511 13.1413 6.20577C8.17592 2.84639 -0.858693 7.27463 2.99515 16.7255C4.40691 20.9677 11.1344 26.9862 15.1041 29.2015Z" fill="url(#paint4_linear_7305_6103)"/>
<path d="M15.1041 29.2015C15.6391 29.5 16.2827 29.4835 16.8146 29.1795C20.3976 27.1318 26.624 22.4179 29.0692 16.2948C32.6583 8.3224 24.2311 1.95834 18.4068 6.5356C17.7992 7.01307 17.0353 7.55954 16.5096 8.07719C16.2719 8.31124 15.8531 8.33511 15.6063 8.11061C14.9152 7.48177 13.835 6.67511 13.1413 6.20577C8.17592 2.84639 -0.858693 7.27463 2.99515 16.7255C4.40691 20.9677 11.1344 26.9862 15.1041 29.2015Z" fill="url(#paint5_linear_7305_6103)"/>
<g filter="url(#filter0_f_7305_6103)">
<path d="M16.2329 10.4781V17.3008C16.2329 18.2057 17.3335 18.6394 17.9066 17.9391C19.6349 15.8269 21.0703 13.2922 20 10.8457C19.4457 9.57876 17.8489 9.37025 16.7676 9.6791C16.423 9.77752 16.2329 10.1197 16.2329 10.4781Z" fill="#FF6826"/>
</g>
<g filter="url(#filter1_f_7305_6103)">
<ellipse cx="24.2587" cy="12.3236" rx="5.33045" ry="4.17569" transform="rotate(-44.1901 24.2587 12.3236)" fill="url(#paint6_radial_7305_6103)" fill-opacity="0.6"/>
</g>
<g filter="url(#filter2_f_7305_6103)">
<ellipse cx="23.316" cy="6.46302" rx="1.69254" ry="0.355636" transform="rotate(7.16522 23.316 6.46302)" fill="#FF8557"/>
</g>
<g filter="url(#filter3_f_7305_6103)">
<ellipse cx="9.276" cy="6.05342" rx="1.51865" ry="0.249413" transform="rotate(-0.697201 9.276 6.05342)" fill="#FF8557"/>
</g>
<g filter="url(#filter4_f_7305_6103)">
<path d="M14.7322 9.96187L15.0447 20.2119C8.1697 13.5244 6.84769 8.82813 9.48215 7.77437C11.9822 6.77437 13.9822 8.39937 14.7322 9.96187Z" fill="url(#paint7_radial_7305_6103)" fill-opacity="0.75"/>
</g>
<defs>
<filter id="filter0_f_7305_6103" x="14.2329" y="7.55261" width="8.13534" height="12.7335" filterUnits="userSpaceOnUse" color-interpolation-filters="sRGB">
<feFlood flood-opacity="0" result="BackgroundImageFix"/>
<feBlend mode="normal" in="SourceGraphic" in2="BackgroundImageFix" result="shape"/>
<feGaussianBlur stdDeviation="1" result="effect1_foregroundBlur_7305_6103"/>
</filter>
<filter id="filter1_f_7305_6103" x="17.9543" y="6.05164" width="12.6089" height="12.5439" filterUnits="userSpaceOnUse" color-interpolation-filters="sRGB">
<feFlood flood-opacity="0" result="BackgroundImageFix"/>
<feBlend mode="normal" in="SourceGraphic" in2="BackgroundImageFix" result="shape"/>
<feGaussianBlur stdDeviation="0.75" result="effect1_foregroundBlur_7305_6103"/>
</filter>
<filter id="filter2_f_7305_6103" x="19.6361" y="4.05176" width="7.35986" height="4.82251" filterUnits="userSpaceOnUse" color-interpolation-filters="sRGB">
<feFlood flood-opacity="0" result="BackgroundImageFix"/>
<feBlend mode="normal" in="SourceGraphic" in2="BackgroundImageFix" result="shape"/>
<feGaussianBlur stdDeviation="1" result="effect1_foregroundBlur_7305_6103"/>
</filter>
<filter id="filter3_f_7305_6103" x="6.25745" y="4.30334" width="6.03709" height="3.50012" filterUnits="userSpaceOnUse" color-interpolation-filters="sRGB">
<feFlood flood-opacity="0" result="BackgroundImageFix"/>
<feBlend mode="normal" in="SourceGraphic" in2="BackgroundImageFix" result="shape"/>
<feGaussianBlur stdDeviation="0.75" result="effect1_foregroundBlur_7305_6103"/>
</filter>
<filter id="filter4_f_7305_6103" x="5.22018" y="4.46667" width="12.8245" height="18.7452" filterUnits="userSpaceOnUse" color-interpolation-filters="sRGB">
<feFlood flood-opacity="0" result="BackgroundImageFix"/>
<feBlend mode="normal" in="SourceGraphic" in2="BackgroundImageFix" result="shape"/>
<feGaussianBlur stdDeviation="1.5" result="effect1_foregroundBlur_7305_6103"/>
</filter>
<radialGradient id="paint0_radial_7305_6103" cx="0" cy="0" r="1" gradientUnits="userSpaceOnUse" gradientTransform="translate(17.1875 12.2833) rotate(108.641) scale(24.5702 36.1876)">
<stop stop-color="#FF753D"/>
<stop offset="1" stop-color="#FF7670"/>
</radialGradient>
<radialGradient id="paint1_radial_7305_6103" cx="0" cy="0" r="1" gradientUnits="userSpaceOnUse" gradientTransform="translate(18.25 17.3458) rotate(-152.069) scale(22.2832 31.5004)">
<stop offset="0.40984" stop-color="#B13E20" stop-opacity="0"/>
<stop offset="1" stop-color="#B34E33"/>
</radialGradient>
<linearGradient id="paint2_linear_7305_6103" x1="13.6875" y1="16.3458" x2="4.68747" y2="26.0333" gradientUnits="userSpaceOnUse">
<stop offset="0.151052" stop-color="#D8505A" stop-opacity="0"/>
<stop offset="1" stop-color="#B73D46"/>
</linearGradient>
<radialGradient id="paint3_radial_7305_6103" cx="0" cy="0" r="1" gradientUnits="userSpaceOnUse" gradientTransform="translate(15.4472 13.8155) rotate(90) scale(19.7992 26.4278)">
<stop offset="0.671096" stop-color="#FF79CC" stop-opacity="0"/>
<stop offset="0.933555" stop-color="#FF79CC"/>
</radialGradient>
<linearGradient id="paint4_linear_7305_6103" x1="17.6324" y1="16.1331" x2="25.6448" y2="25.6685" gradientUnits="userSpaceOnUse">
<stop offset="0.694491" stop-color="#FF7AF2" stop-opacity="0"/>
<stop offset="0.933555" stop-color="#FFBCE6"/>
</linearGradient>
<linearGradient id="paint5_linear_7305_6103" x1="16.6391" y1="16.5304" x2="7.23618" y2="27.1253" gradientUnits="userSpaceOnUse">
<stop offset="0.694491" stop-color="#FF7AF2" stop-opacity="0"/>
<stop offset="0.933555" stop-color="#FFBCE6"/>
</linearGradient>
<radialGradient id="paint6_radial_7305_6103" cx="0" cy="0" r="1" gradientUnits="userSpaceOnUse" gradientTransform="translate(29.5832 12.1821) rotate(173.315) scale(8.70393 10.9507)">
<stop stop-color="#FFC289"/>
<stop offset="1" stop-color="#FFC289" stop-opacity="0"/>
</radialGradient>
<radialGradient id="paint7_radial_7305_6103" cx="0" cy="0" r="1" gradientUnits="userSpaceOnUse" gradientTransform="translate(20.8125 10.3457) rotate(-168.759) scale(10.2593 28.9355)">
<stop stop-color="#FFC289"/>
<stop offset="1" stop-color="#FFC289" stop-opacity="0"/>
</radialGradient>
</defs>
</svg>

<svg width="32" height="32" fill="none" xmlns="http://www.w3.org/2000/svg"><path d="M15.104 29.201a1.732 1.732 0 0 0 1.71-.021c3.584-2.048 9.81-6.762 12.255-12.885 3.59-7.973-4.838-14.337-10.662-9.76-.608.478-1.372 1.025-1.897 1.542-.238.234-.657.258-.904.034-.69-.63-1.771-1.436-2.465-1.905-4.965-3.36-14 1.069-10.146 10.52 1.412 4.242 8.14 10.26 12.11 12.476Z" fill="url(#a)"/><path d="M15.104 29.201a1.732 1.732 0 0 0 1.71-.021c3.584-2.048 9.81-6.762 12.255-12.885 3.59-7.973-4.838-14.337-10.662-9.76-.608.478-1.372 1.025-1.897 1.542-.238.234-.657.258-.904.034-.69-.63-1.771-1.436-2.465-1.905-4.965-3.36-14 1.069-10.146 10.52 1.412 4.242 8.14 10.26 12.11 12.476Z" fill="url(#b)"/><path d="M15.104 29.201a1.732 1.732 0 0 0 1.71-.021c3.584-2.048 9.81-6.762 12.255-12.885 3.59-7.973-4.838-14.337-10.662-9.76-.608.478-1.372 1.025-1.897 1.542-.238.234-.657.258-.904.034-.69-.63-1.771-1.436-2.465-1.905-4.965-3.36-14 1.069-10.146 10.52 1.412 4.242 8.14 10.26 12.11 12.476Z" fill="url(#c)"/><path d="M15.104 29.201a1.732 1.732 0 0 0 1.71-.021c3.584-2.048 9.81-6.762 12.255-12.885 3.59-7.973-4.838-14.337-10.662-9.76-.608.478-1.372 1.025-1.897 1.542-.238.234-.657.258-.904.034-.69-.63-1.771-1.436-2.465-1.905-4.965-3.36-14 1.069-10.146 10.52 1.412 4.242 8.14 10.26 12.11 12.476Z" fill="url(#d)"/><path d="M15.104 29.201a1.732 1.732 0 0 0 1.71-.021c3.584-2.048 9.81-6.762 12.255-12.885 3.59-7.973-4.838-14.337-10.662-9.76-.608.478-1.372 1.025-1.897 1.542-.238.234-.657.258-.904.034-.69-.63-1.771-1.436-2.465-1.905-4.965-3.36-14 1.069-10.146 10.52 1.412 4.242 8.14 10.26 12.11 12.476Z" fill="url(#e)"/><path d="M15.104 29.201a1.732 1.732 0 0 0 1.71-.021c3.584-2.048 9.81-6.762 12.255-12.885 3.59-7.973-4.838-14.337-10.662-9.76-.608.478-1.372 1.025-1.897 1.542-.238.234-.657.258-.904.034-.69-.63-1.771-1.436-2.465-1.905-4.965-3.36-14 1.069-10.146 10.52 1.412 4.242 8.14 10.26 12.11 12.476Z" fill="url(#f)"/><g filter="url(#g)"><path d="M16.233 10.478v6.823c0 .905 1.1 1.338 1.674.638 1.728-2.112 3.163-4.647 2.093-7.093-.554-1.267-2.151-1.476-3.232-1.167-.345.099-.535.44-.535.8Z" fill="#FF6826"/></g><g filter="url(#h)"><ellipse cx="24.259" cy="12.324" rx="5.33" ry="4.176" transform="rotate(-44.19 24.259 12.324)" fill="url(#i)" fill-opacity=".6"/></g><g filter="url(#j)"><ellipse cx="23.316" cy="6.463" rx="1.693" ry=".356" transform="rotate(7.165 23.316 6.463)" fill="#FF8557"/></g><g filter="url(#k)"><ellipse cx="9.276" cy="6.053" rx="1.519" ry=".249" transform="rotate(-.697 9.276 6.053)" fill="#FF8557"/></g><g filter="url(#l)"><path d="m14.732 9.962.313 10.25C8.17 13.524 6.848 8.828 9.482 7.774c2.5-1 4.5.625 5.25 2.188Z" fill="url(#m)" fill-opacity=".75"/></g><defs><radialGradient id="a" cx="0" cy="0" r="1" gradientUnits="userSpaceOnUse" gradientTransform="rotate(108.641 4.184 12.312) scale(24.5702 36.1876)"><stop stop-color="#FF753D"/><stop offset="1" stop-color="#FF7670"/></radialGradient><radialGradient id="b" cx="0" cy="0" r="1" gradientUnits="userSpaceOnUse" gradientTransform="rotate(-152.069 11.282 6.404) scale(22.2832 31.5004)"><stop offset=".41" stop-color="#B13E20" stop-opacity="0"/><stop offset="1" stop-color="#B34E33"/></radialGradient><radialGradient id="d" cx="0" cy="0" r="1" gradientUnits="userSpaceOnUse" gradientTransform="matrix(0 19.7992 -26.4278 0 15.447 13.816)"><stop offset=".671" stop-color="#FF79CC" stop-opacity="0"/><stop offset=".934" stop-color="#FF79CC"/></radialGradient><radialGradient id="i" cx="0" cy="0" r="1" gradientUnits="userSpaceOnUse" gradientTransform="rotate(173.315 14.436 6.955) scale(8.70393 10.9507)"><stop stop-color="#FFC289"/><stop offset="1" stop-color="#FFC289" stop-opacity="0"/></radialGradient><radialGradient id="m" cx="0" cy="0" r="1" gradientUnits="userSpaceOnUse" gradientTransform="matrix(-10.06248 -1.99991 5.64058 -28.3804 20.813 10.346)"><stop stop-color="#FFC289"/><stop offset="1" stop-color="#FFC289" stop-opacity="0"/></radialGradient><filter id="g" x="14.233" y="7.553" width="8.135" height="12.733" filterUnits="userSpaceOnUse" color-interpolation-filters="sRGB"><feFlood flood-opacity="0" result="BackgroundImageFix"/><feBlend in="SourceGraphic" in2="BackgroundImageFix" result="shape"/><feGaussianBlur stdDeviation="1" result="effect1_foregroundBlur_7305_6103"/></filter><filter id="h" x="17.954" y="6.052" width="12.609" height="12.544" filterUnits="userSpaceOnUse" color-interpolation-filters="sRGB"><feFlood flood-opacity="0" result="BackgroundImageFix"/><feBlend in="SourceGraphic" in2="BackgroundImageFix" result="shape"/><feGaussianBlur stdDeviation=".75" result="effect1_foregroundBlur_7305_6103"/></filter><filter id="j" x="19.636" y="4.052" width="7.36" height="4.823" filterUnits="userSpaceOnUse" color-interpolation-filters="sRGB"><feFlood flood-opacity="0" result="BackgroundImageFix"/><feBlend in="SourceGraphic" in2="BackgroundImageFix" result="shape"/><feGaussianBlur stdDeviation="1" result="effect1_foregroundBlur_7305_6103"/></filter><filter id="k" x="6.257" y="4.303" width="6.037" height="3.5" filterUnits="userSpaceOnUse" color-interpolation-filters="sRGB"><feFlood flood-opacity="0" result="BackgroundImageFix"/><feBlend in="SourceGraphic" in2="BackgroundImageFix" result="shape"/><feGaussianBlur stdDeviation=".75" result="effect1_foregroundBlur_7305_6103"/></filter><filter id="l" x="5.22" y="4.467" width="12.825" height="18.745" filterUnits="userSpaceOnUse" color-interpolation-filters="sRGB"><feFlood flood-opacity="0" result="BackgroundImageFix"/><feBlend in="SourceGraphic" in2="BackgroundImageFix" result="shape"/><feGaussianBlur stdDeviation="1.5" result="effect1_foregroundBlur_7305_6103"/></filter><linearGradient id="c" x1="13.688" y1="16.346" x2="4.687" y2="26.033" gradientUnits="userSpaceOnUse"><stop offset=".151" stop-color="#D8505A" stop-opacity="0"/><stop offset="1" stop-color="#B73D46"/></linearGradient><linearGradient id="e" x1="17.632" y1="16.133" x2="25.645" y2="25.669" gradientUnits="userSpaceOnUse"><stop offset=".694" stop-color="#FF7AF2" stop-opacity="0"/><stop offset=".934" stop-color="#FFBCE6"/></linearGradient><linearGradient id="f" x1="16.639" y1="16.53" x2="7.236" y2="27.125" gradientUnits="userSpaceOnUse"><stop offset=".694" stop-color="#FF7AF2" stop-opacity="0"/><stop offset=".934" stop-color="#FFBCE6"/></linearGradient></defs></svg>
